X: 1
T: His Royal Highness Prince Henry of Wales
C: John Barnes 2018
N: Written for the dance "When Harry Wed Meghan" in 2018
N: "To quote his formal style."
R: jig
Z: 2018 John Chambers <jc:trillian.mit.edu>
M: 6/8
L: 1/8
K: D
A |\
"D"F2G A2d | "Em"BGE "F#m"A3 | "Em"BGE "D"AFD | "E7"E^Ge "A7"A2A |\
"D"F2G A2d | "G"Bde "D"f3 | "G"gdB "D"fdA | "A7"eBc "D"d2 :|
|: A |\
"D"afd A2d | "Em"BAG "F#m"A3 | "G"BAG "D"Adf | "E7"efB "A7"e2A |\
"D"afd "G"bag | "D"afd "Bm"A3 | "Em"GBd "D"Adf | "A7"gec "D"d2 :|
